X: 472
T: PoseĂ…Â‚	 Op. 74
C: Fryderyk Chopin
%%abc-version 2.0
%%abcx-abcm2ps-target-version 5.9.1 (29 Sep 2008)
%%abc-creator hum2abc beta
%%abcx-conversion-date 2021/10/03 11:23:34
%%abc-edited-by JĂ„Â™drzej MrĂƒÂ³z
%%abc-edited-by Antoni SzymaĂ…Â„ski
%%abcx-initial-encoding-date 2019-08-26
%%humdrum-veritas 2536538725
%%humdrum-veritas-data 2839880499
%%linebreak <none>
%%barnumbers 0
L: 1/8
M: 2/4
N: Derived from 074-1-G-007.krn
P: ZbiĂƒÂ³r Ă…Â›piewĂƒÂ³w polskich z towarzyszeniem fortepianu
Q: "M. M. [eighth] = 100."
V: 1 clef=treble
V: 2 clef=treble
V: 3 clef=bass
K: D
[V:1] z4 | 
[V:2] A4 & G>F E/F/D | 
[V:3] [A,4D,4] | 
[V:1] z4 | 
[V:2] A4 & G>F E/F/D | 
[V:3] [A,4D,4] | 
[V:1] z4 | 
[V:2] ^G/B/A3 & ^EF3 | 
[V:3] B,/^G,/A,3 & D,4 | 
[V:1] z4 | 
[V:2] ^G/B/A3 & ^EF3 | 
[V:3] B,/^G,/A,3 & D,4 | 
[V:1] z4 | 
[V:2] A4 & G>F E/F/D | 
[V:3] [A,4D,4] | 
[V:1] z4 | 
[V:2] A4 & G>F E/F/D | 
[V:3] [A,4D,4] | 
[V:1] z4 | 
[V:2] A4 & C/A,/C3 | 
[V:3] E,/F,/E,3 & A,,4 | 
[V:1] z4 ||  
[V:2] A4 & C/A,/!fermata!C3 ||  
[V:3] E,/F,/!fermata!E,3 & A,,4 ||  
[V:1] D E F B | 
[V:2] [F2D2][FD][FD] | 
[V:3] [A,2D,2][A,D,][A,D,] | 
[V:1] A2F2 | 
[V:2] [F4D4] | 
[V:3] A,4 & D,2{/C,/B,,/}A,,2 | 
[V:1] D E F ^G/F/ | 
[V:2] [F2D2][FD][^GD] | 
[V:3] [A,2D,2][B,D,][B,E,] | 
[V:1] E2C z | 
[V:2] [A2C2][cE] z | 
[V:3] [A,2E,2A,,2][E,A,,] z | 
[V:1] D E F B | 
[V:2] [F2D2][FD][FD] | 
[V:3] [A,2D,2][A,D,][A,D,] | 
[V:1] A2F2 | 
[V:2] [F4D4] | 
[V:3] A,4 & D,2{/C,/B,,/}A,,2 | 
[V:1] D E F A/G/ | 
[V:2] [F2D2][FDB,][FDB,] | 
[V:3] [F,2B,,2][F,B,,][F,B,,] | 
[V:1] G2F z | 
[V:2] [F4C4^A,4] | 
[V:3] [F,4F,,4] | 
[V:1] F F G F | 
[V:2] [FEC][FEC][FEC][FEC] | 
[V:3] ^A,A,A,A, | 
[V:1] d2B z {/B} | 
[V:2] [FD][FD][GD][GD] | 
[V:3] B,B,B,B, | 
[V:1] B A B A | 
[V:2] [AGE][AGE][AGE][AGE] | 
[V:3] CCCC | 
[V:1] A2-A/G/ F/E/ | 
[V:2] A4 & F2[E2C2] | 
[V:3] D2A,2- | 
[V:1] D E F B | 
[V:2] [F2D2][FD][FD] | 
[V:3] [A,2D,2][A,D,][A,D,] | 
[V:1] A2F E | 
[V:2] [F2D2][F2D2] | 
[V:3] A,4 & D,2{/C,/B,,/}A,,2 | 
[V:1] DE F ^G/F/ | 
[V:2] [F2D2][FD][^GD] | 
[V:3] [A,2D,2][B,D,][B,E,] | 
[V:1] E2C z | 
[V:2] [A2C2][cE] z | 
[V:3] [A,2E,2A,,2][E,A,,] z | 
[V:1] D E F B | 
[V:2] [F2D2][FD][FD] | 
[V:3] [A,2D,2][A,D,][A,D,] | 
[V:1] A2F A | 
[V:2] [F2D2][FD][FD] | 
[V:3] [A,2D,2][A,D,][A,D,] | 
[V:1] _BA G E | 
[V:2] [G2D2_B,2][GCA,][GCA,] | 
[V:3] G,,2A,,A,, | 
[V:1] F>ED2 ||  
[V:2] [F4D4A,4] ||  
[V:3] D,2D,,2 ||  
[V:1] z4 | 
[V:2] A4 & G>F E/F/D | 
[V:3] [A,4D,4] | 
[V:1] z4 | 
[V:2] A4 & G>F E/F/D | 
[V:3] [A,4D,4] | 
[V:1] z4 | 
[V:2] ^G/B/A3 & ^EF3 | 
[V:3] B,/^G,/A,3 & D,4 | 
[V:1] z4 | 
[V:2] ^G/B/A3 & ^EF3 | 
[V:3] B,/^G,/A,3 & D,4 | 
[V:1] z4 | 
[V:2] A4 & G>F E/F/D | 
[V:3] [A,4D,4] | 
[V:1] z4 | 
[V:2] A4 & G>F E/F/D | 
[V:3] [A,4D,4] | 
[V:1] z4 | 
[V:2] A4 & C/A,/C3 | 
[V:3] E,/F,/E,3 & A,,4 | 
[V:1] z4 ||  
[V:2] A4 & C/A,/!fermata!C3 ||  
[V:3] E,/F,/!fermata!E,3 & A,,4 ||  
[V:1] D E F B | 
[V:2] [F2D2][FD][FD] | 
[V:3] [A,2D,2][A,D,][A,D,] | 
[V:1] A2F2 | 
[V:2] [F4D4] | 
[V:3] A,4 & D,2{/C,/B,,/}A,,2 | 
[V:1] D E F ^G/F/ | 
[V:2] [F2D2][FD][^GD] | 
[V:3] [A,2D,2][B,D,][B,E,] | 
[V:1] E2C z | 
[V:2] [A2C2][cE] z | 
[V:3] [A,2E,2A,,2][E,A,,] z | 
[V:1] D E F B | 
[V:2] [F2D2][FD][FD] | 
[V:3] [A,2D,2][A,D,][A,D,] | 
[V:1] A2F2 | 
[V:2] [F4D4] | 
[V:3] A,4 & D,2{/C,/B,,/}A,,2 | 
[V:1] D E F A/G/ | 
[V:2] [F2D2][FDB,][FDB,] | 
[V:3] [F,2B,,2][F,B,,][F,B,,] | 
[V:1] G2F z | 
[V:2] [F4C4^A,4] | 
[V:3] [F,4F,,4] | 
[V:1] F F G F | 
[V:2] [FEC][FEC][FEC][FEC] | 
[V:3] ^A,A,A,A, | 
[V:1] d2B z | 
[V:2] [FD][FD][GD][GD] | 
[V:3] B,B,B,B, | 
[V:1] B A B A | 
[V:2] [AGE][AGE][AGE][AGE] | 
[V:3] CCCC | 
[V:1] A2-A/G/ F/E/ | 
[V:2] A4 & F2[E2C2] | 
[V:3] D2A,2- | 
[V:1] D E F B | 
[V:2] [F2D2][FD][FD] | 
[V:3] [A,2D,2][A,D,][A,D,] | 
[V:1] A2F E | 
[V:2] [F2D2][F2D2] | 
[V:3] A,4 & D,2{/C,/B,,/}A,,2 | 
[V:1] D E F ^G/F/ | 
[V:2] [F2D2][FD][^GD] | 
[V:3] [A,2D,2][B,D,][B,E,] | 
[V:1] E2C z | 
[V:2] [A2C2][cE] z | 
[V:3] [A,2E,2A,,2][E,A,,] z | 
[V:1] D E F B | 
[V:2] [F2D2][FD][FD] | 
[V:3] [A,2D,2][A,D,][A,D,] | 
[V:1] A2F A | 
[V:2] [F2D2][FD][FD] | 
[V:3] [A,2D,2][A,D,][A,D,] | 
[V:1] _B A G E | 
[V:2] [G2D2_B,2][GCA,][GCA,] | 
[V:3] G,,2A,,A,, | 
[V:1] F>ED2 ||  
[V:2] [F4D4A,4] ||  
[V:3] D,2D,,2 ||  
[V:1] z4 | 
[V:2] A4 & G>F E/F/D | 
[V:3] [A,4D,4] | 
[V:1] z4 | 
[V:2] A4 & G>F E/F/D | 
[V:3] [A,4D,4] | 
[V:1] z4 | 
[V:2] ^G/B/A3 & ^EF3 | 
[V:3] B,/^G,/A,3 & D,4 | 
[V:1] z4 | 
[V:2] ^G/B/A3 & ^EF3 | 
[V:3] B,/^G,/A,3 & D,4 | 
[V:1] z4 | 
[V:2] A4 & G>F E/F/D | 
[V:3] [A,4D,4] | 
[V:1] z4 | 
[V:2] A4 & G>F E/F/D | 
[V:3] [A,4D,4] | 
[V:1] z4 | 
[V:2] A4 & C/A,/C3 | 
[V:3] E,/F,/E,3 & A,,4 | 
[V:1] z4 ||  
[V:2] A4 & C/A,/!fermata!C3 ||  
[V:3] E,/F,/!fermata!E,3 & A,,4 ||  
[V:1] D E F B | 
[V:2] [F2D2][FD][FD] | 
[V:3] [A,2D,2][A,D,][A,D,] | 
[V:1] A2F2 | 
[V:2] [F4D4] | 
[V:3] A,4 & D,2{/C,/B,,/}A,,2 | 
[V:1] D E F ^G/F/ | 
[V:2] [F2D2][FD][^GD] | 
[V:3] [A,2D,2][B,D,][B,E,] | 
[V:1] E2C z | 
[V:2] [A2C2][cE] z | 
[V:3] [A,2E,2A,,2][E,A,,] z | 
[V:1] D E F B | 
[V:2] [F2D2][FD][FD] | 
[V:3] [A,2D,2][A,D,][A,D,] | 
[V:1] A2F2 | 
[V:2] [F4D4] | 
[V:3] A,4 & D,2{/C,/B,,/}A,,2 | 
[V:1] D E F A/G/ | 
[V:2] [F2D2][FDB,][FDB,] | 
[V:3] [F,2B,,2][F,B,,][F,B,,] | 
[V:1] G2F z | 
[V:2] [F4C4^A,4] | 
[V:3] [F,4F,,4] | 
[V:1] F F G F | 
[V:2] [FEC][FEC][FEC][FEC] | 
[V:3] ^A,A,A,A, | 
[V:1] d2B z | 
[V:2] [FD][FD][GD][GD] | 
[V:3] B,B,B,B, | 
[V:1] B A B A | 
[V:2] [AGE][AGE][AGE][AGE] | 
[V:3] CCCC | 
[V:1] A2-A/G/ F/E/ | 
[V:2] A4 & F2[E2C2] | 
[V:3] D2A,2- | 
[V:1] D E F B | 
[V:2] [F2D2][FD][FD] | 
[V:3] [A,2D,2][A,D,][A,D,] | 
[V:1] A2F E | 
[V:2] [F2D2][F2D2] | 
[V:3] A,4 & D,2{/C,/B,,/}A,,2 | 
[V:1] D E F ^G/F/ | 
[V:2] [F2D2][FD][^GD] | 
[V:3] [A,2D,2][B,D,][B,E,] | 
[V:1] E2C z | 
[V:2] [A2C2][cE] z | 
[V:3] [A,2E,2A,,2][E,A,,] z | 
[V:1] D E F B | 
[V:2] [F2D2][FD][FD] | 
[V:3] [A,2D,2][A,D,][A,D,] | 
[V:1] A2F A | 
[V:2] [F2D2][FD][FD] | 
[V:3] [A,2D,2][A,D,][A,D,] | 
[V:1] _B A G E | 
[V:2] [G2D2_B,2][GCA,][GCA,] | 
[V:3] G,,2A,,A,, | 
[V:1] F>ED2 | 
[V:2] [F4D4A,4] | 
[V:3] D,2D,,2 | 
[V:1] z4 | 
[V:2] f/A/d3 & F4 | 
[V:3] [A,4D,4] | 
[V:1] z4 | 
[V:2] f/A/d3 & F4 | 
[V:3] [A,4D,4] | 
[V:1] z4 | 
[V:2] f/A/d f/A/d & F4 | 
[V:3] [A,4D,4]- | 
[V:1] z4 |]  
[V:2] !fermata!d'4 |]  
[V:3] !fermata![A,4D,4] |]
